X: 54
T: Susan's Waltz
C: Jonathan Jensen
O: Baltimore, Maryland
%R: waltz
Z: Collected and edited 2014 by John Chambers <jc:trillian.mit.edu>
B: GEMS The Best of the Country Dance and Song Society Diamond Jubilee Music, Dance and Song Contest 1993 p.78 #2
M: 3/4
L: 1/8
K: Am
% - - - - - - - - - - - - - - - - - - - - - - - - -
EG |:\
"Am"A3 B AG | "F"A2 c2 d2 | "C"e2 d2 c2 | "G"d4 cB |\
"Am"A3 B AG | "F"A2 c2 A2 | "G7"G3 E D2 | "C"C4 EG |
"Am"A3 B AG | "F"A2 c2 d2 | "C"e2 d2 c2 | "G"d4 ed |\
"Dm7"c3 d cA | "Em"G2 E2 G2 | "Am"A4- AB |1 A4 EG :|2 A3 B ce ||
|:\
"Em7"g2 e2 g2 | "Am"a3 g ed | "Dm7"c2 A2 c2 | "G"d4 ef |\
"Em"g2 e2 g2 | "Am"a3 g ed | "Dm7"c3 A "Em7"B2 | "Am"A3 B ce |
"Em7"g2 e2 g2 | "Am"a3 g ed | "Am"c2 A2 "Am7"c2 | "D"d4 ed |\
"Dm7"c3 d cA | "Em"G2 E2 G2 | "Am"A4- AB |1 A3 B ce :|2 A4 |]
% - - - - - - - - - - - - - - - - - - - - - - - - -

